X:1
T:I Live but in Thee
T:I Live but in Thee
T:John Robson Sweney
T:Frances Janes (Fanny) Crosby, 1881
T:Public Domain Courtesy of the Cyber Hymnal™
T:Public Domain Courtesy of the Cyber Hymnal™
C:John Robson Sweney
Z:Public Domain
Z:Courtesy of the Cyber Hymnal™
%%score ( 1 2 ) ( 3 4 )
L:1/8
Q:1/4=113
M:4/4
K:G
V:1 treble 
V:2 treble 
V:3 bass 
V:4 bass 
V:1
 [DB]2 | [DB]2 [B,D]>[CE] [B,G]2 [DG][DG] | [DA]2 [DG]>[DA] [DB]3 [GB] | %3
w: 1.~O|light of my spir- it and|joy of my heart, Thou|
w: 2.~I|care not for trea- sures that|rust and de- cay, I|
w: 3.~Thus|far hast Thou led me, I’ll|trust Thee for all, I|
 [Gc]2 [Gd]>[Ge] [Gd]2 [GB][DG] | [^CE]2 [CA]>[EG] [DF]3 [Dd] | [DB]2 [B,D]>[CE] [B,G]2 [DG][DG] | %6
w: chief a- mong thou- sands, how|love- ly Thou art! I|think of Thy good- ness wher-|
w: seek not for plea- sures that|van- ish a- way, E-|nough that my Sav- ior my|
w: know Thou wilt ev- er re-|spond to my call; I|feel that Thy grace is suf-|
 [DA]2 [DG]>[DA] [DB]3 [GB] | [Gc]2 [Gd]>[Ge] [Gd]2 [GB][DG] | [DF]2 [DE]>[DF] [DG]2 || %9
w: e’er I may be, My|rock and sal- va- tion, I|live but for Thee.|
w: por- tion will be, O|lov- ing Re- deem- er, I|live but in Thee.|
w: fi- cient for me, O|Sav- ior of sin- ners, I|live but in Thee.|
"^Refrain" d2 | (z (3[Fd])[FA][GB] [Ac]2 e2 x | (z (3:2:1[Gd])G(3:2:1[GA] [GB]2 B2 x2/3 | %12
w: |||
w: I|* live but in Thee,|* I live but in|
w: |||
 (z (3[DB])[FA][EG] [=DF]2 [DF]G x | (z (3[CA])[CG][=CE] D2 d2 x | (z (3[Fd])[FA][GB] [Ac]2 e2 x | %15
w: |||
w: * Thee, My rock and sal-|* va- tion, I live|* but in Thee; I|
w: |||
 (z (3:2:1[Gd])G(3:2:1[GA] [GB]2 B2 x2/3 | (z (3[EA])[Ec][Ae] [Gd]2 [GB]G x | %17
w: ||
w: * live but in Thee,|* I live but in Thee,|
w: ||
 (z (3[DF])[DE][DF] !fermata![DG]2 x |] %18
w: |
w: * My rock and|
w: |
V:2
 x2 | x8 | x8 | x8 | x8 | x8 | x8 | x8 | x6 || x2 | (d2- F) x5 | (d2- G)(3:2:1G x13/3 | %12
 (B2- ^D) x5 | (A2- ^C) x D2 x2 | (d2- F) x5 | (d2- G)(3:2:1G x13/3 | (A2- E) x5 | (F2- D) x3 |] %18
V:3
 [G,,G,]2 | [G,,G,]2 [G,,G,]>[G,,G,] [G,,G,]2 [G,B,][G,B,] | [D,C]2 [D,B,]>[D,F,] G,3 [G,D] | %3
w: ~|~ ~ ~ ~ ~ ~|~ ~ ~ ~ ~|
 [G,E]2 [G,B,]>[G,C] [G,B,]2 [G,D][G,B,] | A,2 [A,,E,]>[A,,A,] [D,A,]3 [F,A,] | %5
w: ~ ~ ~ ~ ~ ~|~ ~ ~ ~ ~|
 G,2 [G,,G,]>[G,,G,] [G,,G,]2 [G,B,][G,B,] | [D,C]2 [D,B,]>[D,F,] G,3 [G,D] | %7
w: ~ ~ ~ ~ ~ ~|~ ~ ~ ~ ~|
 [G,E]2 [G,B,]>[G,C] [G,B,]2 [G,D][G,B,] | [D,A,]2 [D,C]>[D,C] [G,,G,B,]2 || z2 | %10
w: ~ ~ ~ ~ ~ ~|~ ~ ~ ~||
 z [D,A,] (3[D,A,][D,D][D,D] [D,D]2 z2 | z [G,B,] (3[G,B,][G,B,][G,C] [G,D]2 z2 | %12
w: I live but in Thee,|I live but in Thee,|
 z [B,,F,] (3[B,,F,][B,,B,][B,,B,] [B,,B,]2 [B,,B,] z | %13
w: My rock and sal- va- tion,|
 z [A,,E,] (3[A,,E,][A,,A,][A,,G,] [D,F,]2 z2 | z [D,A,] (3[D,A,][D,D][D,D] [D,D]2 z2 | %15
w: I live but in Thee;|I live but in Thee,|
 z [G,B,] (3[G,B,][G,B,][G,C] [G,C]2 z2 | z [C,C] (3[C,C][C,A,][C,C] [G,B,]2 [G,D] z | %17
w: I live but in Thee,|My rock and sal- va- tion,|
 z [D,A,] (3[D,A,][D,C][D,C] !fermata![G,,G,B,]2 |] %18
w: I live but in Thee;|
V:4
 x2 | x8 | x4 G,3 x | x8 | A,2 x6 | G,2 x6 | x4 G,3 x | x8 | x6 || x2 | x8 | x8 | x8 | x8 | x8 | %15
 x8 | x8 | x6 |] %18

